!!!!SEGMENT: pl-kk--kk-i-6--016_anonim--ecce-virgo-concipiet.krn
!!!cenid: 16xx:971
!!!COM: Anonim
!!!COM-rism: pe30004985
!!!CDT:
!!!CNT:
!!!OTL: Ecce virgo concipiet
!!!PDT:
!!!AGN: Sacred
!!!SMS-siglum: PL-Kk
!!!SMS-shelfmark: Kk.I.6
!!!NIFC-rismID: 1001135714
!!!URL-scan: http://repozytorium.nifc.pl/skany/pl-kk-nut--i-6
!!!ONB-nifc: UWAGA: C (skan 0012, s. 20-21), T (skan 0114, s. 32-33), B (skan 0225, s. 30-31)
!!!SMS-variant:
!!!SMS-altvar:
**kern	**text	**kern	**text	**kern	**text
*part3	*part3	*part2	*part2	*part1	*part1
*staff3	*staff3	*staff2	*staff2	*staff1	*staff1
*group1	*	*group1	*	*group1	*
*I"Baſsus.	*	*I"Tenor.	*	*I"Cantus.	*
*I'B	*	*I'T	*	*I'S	*
*clefF4	*	*clefC4	*	*clefC4	*
*k[]	*	*k[]	*	*k[]	*
*M2/1	*	*M2/1	*	*M2/1	*
*met(C|)	*	*met(C|)	*	*met(C|)	*
*all\middle	*	*all\middle	*	*	*
=1-	=1-	=1-	=1-	=1-	=1-
1D	Ec-	1A	Ec-	1D	Ec-
*2\right	*	*	*	*lig	*
2.F\	-ce	1.A	-ce	1D	-ce
4E\	.	.	.	.	.
=2-	=2-	=2-	=2-	=2-	=2-
1D	.	.	.	1F,<	.
*	*	*2\right	*	*	*
.	.	2B\	.	.	.
*	*	*	*	*Xlig	*
*	*	*	*	*lig	*
1C	Vir-	2.c\	Vir-	1E	Vir-
.	.	4B\	.	.	.
=3-	=3-	=3-	=3-	=3-	=3-
1D	.	4A/	.	1F	.
.	.	4G/	.	.	.
.	.	2A/	.	.	.
*	*	*	*	*Xlig	*
1GG	-go	1B	-go	1D	-go
=4-	=4-	=4-	=4-	=4-	=4-
*	*	*	*	*lig	*
2rBB	.	1A	Con-	1D	Con-
2D/	Con-	.	.	.	.
!	!	!LO:SIC:v:t=custos c	!	!	!
2.C/	-ci-	1c	-ci-	1E	.
4BB/	.	.	.	.	.
*	*	*	*	*Xlig	*
!	!	!LO:LB:g=original	!	!	!
=5-	=5-	=5-	=5-	=5-	=5-
*	*	*	*	*lig	*
4C/	.	2.c\	.	1G	-ci-
4D/	.	.	.	.	.
2E\	.	.	.	.	.
.	.	4d\	.	.	.
2C/	.	2e\	.	1A	.
2D\	-pi-	2d\	.	.	.
*	*	*	*	*Xlig	*
=6-	=6-	=6-	=6-	=6-	=6-
!LO:SIC:v:t=custos D	!	!	!	!	!
*	*	*	*	*lig	*
1GG	-et.	1B	-pi-	1G	-pi-
!LO:LB:g=original	!	!	!	!LO:SIC:v:t=custos F	!
2r	.	1A	-et	1F	.
*	*ij	*	*	*	*
2D/	Con-	.	.	.	.
*	*	*	*	*Xlig	*
!	!	!	!	!LO:PB:g=original	!
=7-	=7-	=7-	=7-	=7-	=7-
*	*	*	*ij	*lig	*
1D	-ci-	2r	.	1F	-et
.	.	2A/	Con-	.	.
*lig	*	*	*	*	*
1C	-pi-	2.c\	-ci-	1E	.
.	.	4B\	.	.	.
*	*	*	*	*Xlig	*
=8-	=8-	=8-	=8-	=8-	=8-
*	*	*	*	*lig	*
1D	.	4A/	.	1F	.
.	.	4G/	-pi-	.	.
.	.	2A/	-et	.	.
*Xlig	*	*	*Xij	*	*
1GG	-et	2B\	et	1D,<	.
.	.	2.d\	pa-	.	.
*	*Xij	*	*	*Xlig	*
=9-	=9-	=9-	=9-	=9-	=9-
*	*	*	*	*lig	*
1GG	et	.	.	1D	et
.	.	4c\	.	.	.
.	.	4B\	.	.	.
.	.	4A/	.	.	.
2.C/	pa-	2G/	.	1E,<	.
.	.	2c\	-ri-	.	.
4D/	.	.	.	.	.
*	*	*	*	*Xlig	*
=10-	=10-	=10-	=10-	=10-	=10-
*	*	*	*	*lig	*
1E	.	1B	-et	1G	pa-
2D/	.	2r	.	1A	.
!	!	!LO:SIC:v:t=custos c	!	!	!
4C/	.	2d\	et	.	.
4BB/	.	.	.	.	.
*	*	*	*	*Xlig	*
!	!	!LO:LB:g=original	!	!	!
=11-	=11-	=11-	=11-	=11-	=11-
*	*	*	*	*lig	*
1AA	-ri-	2c\	pa-	1c	.
.	.	2A/	-ri-	.	.
2GG/	-et	1B	-et	1d	.
*	*ij	*	*	*	*
2G\	et	.	.	.	.
*	*	*	*	*Xlig	*
=12-	=12-	=12-	=12-	=12-	=12-
2F\	pa-	2c\	.	1A	.
2D/	-ri-	1d	fi-	.	.
!LO:SIC:v:t=custos c	!	!	!	!	!
*	*	*	*	*lig	*
1E	-et	.	.	1G	-ri-
.	.	2c\	-li-	.	.
!LO:LB:g=original	!	!	!	!	!
=13-	=13-	=13-	=13-	=13-	=13-
2.D/	pa-	2d\	-um	1A	.
.	.	2f\	.	.	.
4C/	-ri-	.	.	.	.
*	*	*	*ij	*Xlig	*
2AA/	-et	2e\	et	1A,<	-et
*	*Xij	*	*	*	*
1D\	fi-	1d\	pa-	.	.
=14-	=14-	=14-	=14-	=14-	=14-
.	.	.	.	1A	fi-
2E\	.	2.c\	.	.	.
*	*	*	*	*lig	*
1F	-li-	.	.	1A	-li-
.	.	4B\	-ri-	.	.
.	.	1A\	-et	.	.
=15-	=15-	=15-	=15-	=15-	=15-
!	!	!	!	!LO:SIC:v:t=custos c	!
1E	.	.	.	1B	.
.	.	2G/	et	.	.
*	*	*	*	*Xlig	*
*	*	*	*	*lig	*
!	!	!	!	!LO:LB:g=original	!
2AA/	-um	2.A/	pa-	1c	.
*	*ij	*	*	*	*
2AA/	fi-	.	.	.	.
.	.	4G/	.	.	.
=16-	=16-	=16-	=16-	=16-	=16-
1D	-li-	2F/	.	1A	.
.	.	4E/	.	.	.
.	.	4D/	-ri-	.	.
*	*	*	*	*Xlig	*
1AA	-um	2.E/	-et	1A,<	-um
*	*Xij	*	*	*	*
!	!	!LO:SIC:v:t=custos B	!	!	!
.	.	4A/	fi-	.	.
!	!	!LO:LB:g=original	!	!	!
=17-	=17-	=17-	=17-	=17-	=17-
!	!	!LO:TX:b:t=P:problem:# below	!	!	!
1rD	.	1B#X	-li-	1G,<	et
*	*	*	*	*lig	*
2rBB	.	1G	-um	1B	Vo-
*	*	*	*Xij	*	*
1E\	et	.	.	.	.
=18-	=18-	=18-	=18-	=18-	=18-
.	.	2r	.	1c	.
2C/	vo-	1A	et	.	.
*	*	*	*	*Xlig	*
*	*	*	*	*lig	*
1D	-ca-	.	.	1A	-ca-
!	!	!LO:TX:b:t=P:problem:# below	!	!	!
.	.	2F#X/	vo-	.	.
=19-	=19-	=19-	=19-	=19-	=19-
1E	-bi-	1G	-ca-	1G	.
*	*	*	*	*Xlig	*
!LO:SIC:v:t=custos AA	!	!	!	!	!
*	*	*	*	*lig	*
1AA	-tur	1A	-bi-	1c	-bi-
!LO:PB:g=original	!	!	!	!	!
=20-	=20-	=20-	=20-	=20-	=20-
2rBB	.	2D/	-tur	1A	.
*	*	*	*ij	*	*
2AA/	No-	2A/	et	.	.
*	*	*	*	*Xlig	*
2.AA/	-men	2A/	vo-	1c	.
.	.	2.c\	-ca-	.	.
4BB/	.	.	.	.	.
=21-	=21-	=21-	=21-	=21-	=21-
*	*	*	*	*lig	*
4C/	.	.	.	1G	-tur
4D/	.	4Bny\	-bi-	.	.
2E\	.	2.B\	-tur	.	.
2D/	.	.	.	1A	.
.	.	4A/	vo-	.	.
2C/	.	1A\	ca-	.	.
*	*	*	*	*Xlig	*
=22-	=22-	=22-	=22-	=22-	=22-
1BB	e-	.	.	1B	.
.	.	2G/	.	.	.
*	*	*	*	*lig	*
1AA	-ius	2A/	-bi-	1c	.
!	!	!LO:SIC:v:t=custos c	!	!	!
.	.	2A/	-tur	.	.
*	*	*	*Xij	*	*
!	!	!LO:LB:g=original	!	!	!
=23-	=23-	=23-	=23-	=23-	=23-
2rBB	.	2c\	no-	1A,<	.
2.D/	no-	1d	.	.	.
*	*	*	*	*Xlig	*
.	.	.	.	1F	No-
4E\	.	.	.	.	.
4F\	.	4c\	.	.	.
4G\	.	4B\	.	.	.
=24-	=24-	=24-	=24-	=24-	=24-
!	!	!	!	!LO:SIC:v:t=custos F	!
2A\	.	1A	-men	1F	-men
2D/	-men	.	.	.	.
*	*	*	*	*lig	*
!	!	!	!	!LO:LB:g=original	!
1A	e-	2Fny/	e-	1F	e-
.	.	4D/	.	.	.
.	.	4E/	.	.	.
=25-	=25-	=25-	=25-	=25-	=25-
!LO:SIC:v:t=custos GG	!	!	!	!	!
1D	-ius	4F/	.	1A	.
.	.	4G/	.	.	.
.	.	1A	.	.	.
*	*	*	*	*Xlig	*
*	*	*	*	*lig	*
!LO:LB:g=original	!	!	!	!	!
2rBB	.	.	.	1B-X	.
*	*ij	*	*	*	*
2GG/	no-	2G/	.	.	.
=26-	=26-	=26-	=26-	=26-	=26-
2D/	.	2F/	.	1A	.
2C/	-men	2E/	.	.	.
*	*	*	*	*Xlig	*
*	*	*	*	*lig	*
1D	e-	2D/	-ius	1A	-ius
.	.	1d\	E-	.	.
=27-	=27-	=27-	=27-	=27-	=27-
1GG	-ius	.	.	1G,<	.
.	.	2B\	.	.	.
*	*Xij	*	*	*Xlig	*
*	*	*	*	*lig	*
2r	.	2c\	-ma-	1F	E-
2D/	E-	2A/	.	.	.
=28-	=28-	=28-	=28-	=28-	=28-
2BB/	.	2B\	.	1G	.
!	!	!LO:SIC:v:t=custos c	!	!	!
1C	-ma-	2G/	.	.	.
*	*	*	*	*Xlig	*
*	*	*	*	*lig	*
!	!	!LO:PB:g=original	!	!	!
.	.	1c	-nu-	1E	.
2AA/	.	.	.	.	.
=29-	=29-	=29-	=29-	=29-	=29-
1D	-nu-	1A	-el	1F	.
*	*	*	*	*Xlig	*
0GG	-el	2r	.	1D	.
.	.	1d\	E-	.	.
=30-	=30-	=30-	=30-	=30-	=30-
*	*	*	*	*lig	*
.	.	.	.	1D	-ma-
.	.	2B\	-ma-	.	.
2rBB	.	2c\	-nu-	1F	.
*	*ij	*	*	*	*
2D/	E-	2A/	-el	.	.
*	*	*	*	*Xlig	*
=31-	=31-	=31-	=31-	=31-	=31-
*	*	*	*ij	*lig	*
2BB/	.	2B\	E-	1G	.
1C	-ma-	2G/	-ma-	.	.
.	.	2.c\	-nu-	1A	.
2AA/	.	.	.	.	.
.	.	4B\	.	.	.
*	*	*	*	*Xlig	*
=32-	=32-	=32-	=32-	=32-	=32-
*	*	*	*	*lig	*
1D	.	2A/	-el	1F	-nu-
.	.	2B\	E-	.	.
!LO:SIC:v:t=custos BB	!	!	!	!	!
1AA	.	2c\	-ma-	1E	.
.	.	1A\	.	.	.
*	*	*	*	*Xlig	*
!LO:LB:g=original	!	!	!	!	!
=33-	=33-	=33-	=33-	=33-	=33-
*	*	*	*	*lig	*
0BB-X	-nu-	.	.	1D	-el.
.	.	4G/	.	.	.
.	.	4F/	.	.	.
.	.	1G	-nu-	1E	.
*	*	*	*	*Xlig	*
=34-	=34-	=34-	=34-	=34-	=34-
!	!	!LO:SIC:v:t=custos A	!	!	!
0AA	-el	1A	-el	[0Dl;;	.
*	*Xij	*	*Xij	*	*
!	!	!LO:LB:g=original	!	!	!
.	.	2r	.	.	.
.	.	2A/	E-	.	.
=35-	=35-	=35-	=35-	=35-	=35-
2r	.	1.A	-ma-	0D_	.
2A\	E-	.	.	.	.
1.A	-ma-	.	.	.	.
.	.	2G/	.	.	.
=36-	=36-	=36-	=36-	=36-	=36-
.	.	2F/	.	0D_	.
2G\	.	2E/	.	.	.
2F\	.	1D	-nu-	.	.
2E\	.	.	.	.	.
=37-	=37-	=37-	=37-	=37-	=37-
2D/	.	1A	-el	0D_	.
2C/	.	.	.	.	.
2BB-X/	.	2r	.	.	.
*	*	*	*ij	*	*
2AA/	.	2F/	E-	.	.
=38-	=38-	=38-	=38-	=38-	=38-
2GG/	.	2G/	-ma-	0D_	.
!LO:TX:b:t=P:problem:# below	!	!	!	!	!
2FF#X/	.	2A/	.	.	.
1GG	-nu-	2B-X\	.	.	.
.	.	2G/	-nu-	.	.
=39-	=39-	=39-	=39-	=39-	=39-
!	!	!LO:TX:a:t=P:problem:# above/below	!	!	!
0Dl;;	-el.	0F#Xl;;	-el	0D]	.
*	*	*	*Xij	*	*
==	==	==	==	==	==
*-	*-	*-	*-	*-	*-
!!!system-decoration: [g1]
!!!RDF**kern: > = above
!!!RDF**kern: < = below
!!!RDF**kern: l = terminal long
!!!ENC: Andrzej Kubiczek
!!!END: 2021-03-21
!!!ENC: Tomasz Grochalski
!!!END: 2021-03-07
